X: 1
T: John Of The Glen
M: 4/4
L: 1/8
R: reel
K: Dmaj
Adef3ga- | a2gf-f4 | ed/2c/2d3cd2- | dcde-e4 |
ABc3ed2- | dcB6 | AG/2F/2G3F/2G/2A2- | A8 ||
c2c3Ac2- | cde6 | a>ba3bag | f2a6 |
agf3ge2- | ecde-e4 | c-c/2e/2d3cA2- | AGA6 ||
